packages/elements/bolt-icon/src/svgs/lock-solid.svg

<svg enable-background="new 0 0 32 32" viewBox="0 0 32 32" xmlns="http://www.w3.org/2000/svg"><path d="m25.5 13.1h-.9v-4.4c0-4.8-4-8.7-8.7-8.7s-8.8 3.8-8.8 8.5v4.4h-.4c-1.6 0-2.9 1.3-2.9 2.9v13.2c0 1.6 1.3 2.9 2.9 2.9h18.6c1.6 0 2.9-1.3 2.9-2.9v-13.1c.2-1.5-1.1-2.8-2.7-2.8zm-4.1 0h-11.2v-4.4c0-3.1 2.5-5.6 5.6-5.6s5.6 2.5 5.6 5.6z" fill="#151619"/></svg>

<?xml version="1.0" encoding="utf-8"?>
<!-- Generator: Adobe Illustrator 25.2.0, SVG Export Plug-In . SVG Version: 6.00 Build 0)  -->
<svg version="1.1" id="Layer_1" xmlns="http://www.w3.org/2000/svg" xmlns:xlink="http://www.w3.org/1999/xlink" x="0px" y="0px"
	 viewBox="0 0 32 32" style="enable-background:new 0 0 32 32;" xml:space="preserve">
<style type="text/css">
	.st0{fill:#151619;}
</style>
<path class="st0" d="M25.5,13.1h-0.9V8.7c0-4.8-4-8.7-8.7-8.7S7.1,3.8,7.1,8.5v4.4H6.7c-1.6,0-2.9,1.3-2.9,2.9v13.2
	c0,1.6,1.3,2.9,2.9,2.9h18.6c1.6,0,2.9-1.3,2.9-2.9V15.9C28.4,14.4,27.1,13.1,25.5,13.1z M21.4,13.1H10.2V8.7c0-3.1,2.5-5.6,5.6-5.6
	s5.6,2.5,5.6,5.6V13.1z"/>
</svg>
